X:14719
T:Sadilo Mome
S:Hamish Small 
R:Other
O:Macedonia
M:7/16
L:1/8
K:Bbm
A3/2 BB|B3/2 BB|dc/ BB|dc/ BB|\
A3/2 dc|dc/ BA |(B3/2 B2)||\
|:dc/ B2|A3/2 dc|dc/ BA|B3/2 Be|B3/2 B2:|\
(d3/2 d2)|(c3/2 c2)|BA/ Bc|d3/2 dA||\
|:(d3/2 d2)|(c3/2 c2)|BA/ Bf|(B3/2 B2):|
